X: 6007
T: Canongate Twitch, The
R: reel
M: 4/4
K: Amajor
(3aaa af ggge|(3aaa af ecAc|(3aaa af ggge|fB ~B2 fB ~B2
(3aaa af ggge|(3aaa af ecAc|ABcA ~B2 AB|c2 Bd cAA||

